!!!COM: Fux, Johann Joseph
!!!OMD: Gradus ad Parnassum Exercise
!!!YEC: CC0 1.0 Universal (Public Domain). Mark Gotham and FourScoreAndMore.org waive all rights to this document.
**kern	**kern
*part2	*part1
*staff2	*staff1
*I"2	*I"1
*I'Pno	*I'Pno
!!LO:PB:g=z
*clefGv2	*clefG2
*k[]	*k[]
!!LO:TX:omd:t=
*M2/2	*M2/2
=185	=185
!	!LO:TX:a:t=Fig. 40; Species&colon; 2; Modal final&colon; g; Cantus firmus&colon; Lower
1G	2r
.	2g/
=186	=186
1c	2e/
.	2f/
=187	=187
1B	2g/
.	2a/
=188	=188
1G	2b\
.	2a/
=189	=189
1c	2g/
.	2cc\
=190	=190
1e	2b\
.	2cc\
=191	=191
1d	2dd\
.	2cc\
!!LO:LB:g=z
=192	=192
1g	2b\
.	2a/
=193	=193
1e	2g/
.	2f/
=194	=194
1c	2e/
.	2cc\
=195	=195
1d	2b\
.	2a/
=196	=196
1B	2g/
.	2d/
=197	=197
1A	2e/
.	2f#X/
=198	=198
1G	1g
==	==
*-	*-
!!!software: music21 v.9.7.1
!!!software: music21 v.9.7.1
!!!software: MuseScore 3.4.2
!!!RDF**kern: > = above
!!!RDF**kern: < = below
